X:123
T:score207
L:1/8
Q:1/4=96
M:2/2
I:linebreak $
K:F
!mf! A2 B2 | c2 f2 AGAB | c4 f2 ed |$ c2 BA A2 GF | E2 C2 A2!mp! B2 | c2 f2 AGAB |$ c4 f2 ed | %7
 c2 BA TB2 AG | F4 z4 |] %9
